X:1
L:1/8
M:2/2
K:D
 DEFD d3 B | =cAAG E c3 | DEFD d2 ed | =cAGE EDDC | DEFD d3 B | =cAAG E c3 | AB=cA d2 ed | 
 =cAGE ED D2 | defg afge | cdef gecA | defg agfa | g3 a fdfg | afdf afdf | ge=ce g2 fe | 
 defg afbf | afeg fdde | f2 de fagf | eABA g2 af | gfde fage | fdec Ad d2 | f2 de fagf | 
 eABA g2 fg | afge fdcA | BdAG FD D2 |]
